azure-patterns/svg-service-fabric-mono.svg

<svg xmlns="http://www.w3.org/2000/svg" viewBox="0 0 24 24"><path d="M19.977 13.947c.172.026.344.053.523.053a3.505 3.505 0 0 0 3.409-4.309c-.289-1.291-1.35-2.33-2.643-2.609a3.477 3.477 0 0 0-3.146.864l-3.082-2.239c.444-.788.625-1.744.289-2.782C14.923 1.678 13.812.72 12.514.536A3.503 3.503 0 0 0 8.5 4c0 .624.177 1.201.462 1.708L5.88 7.947a3.477 3.477 0 0 0-3.146-.864C1.44 7.362.38 8.4.091 9.691A3.505 3.505 0 0 0 3.5 14c.179 0 .351-.027.523-.053l1.086 3.343a3.504 3.504 0 0 0-2.023 3.997 3.488 3.488 0 0 0 2.668 2.635A3.492 3.492 0 0 0 9.95 21h4.101a3.491 3.491 0 0 0 4.195 2.923 3.488 3.488 0 0 0 2.668-2.635 3.503 3.503 0 0 0-2.023-3.997l1.086-3.344zm-.099-5.871a2.508 2.508 0 0 1 3.047 3.046 2.488 2.488 0 0 1-1.802 1.802 2.508 2.508 0 0 1-3.047-3.047 2.488 2.488 0 0 1 1.802-1.801zm-8.5-6.5a2.508 2.508 0 0 1 3.047 3.046 2.488 2.488 0 0 1-1.802 1.802 2.508 2.508 0 0 1-3.047-3.047 2.488 2.488 0 0 1 1.802-1.801zM1.075 11.122a2.507 2.507 0 0 1 3.047-3.046 2.49 2.49 0 0 1 1.802 1.802 2.508 2.508 0 0 1-3.047 3.047 2.494 2.494 0 0 1-1.802-1.803zm3.906 2.539A3.492 3.492 0 0 0 7 10.5c0-.649-.189-1.249-.496-1.77l3.06-2.223a3.485 3.485 0 0 0 4.872 0l3.06 2.223A3.472 3.472 0 0 0 17 10.5c0 1.402.829 2.602 2.019 3.161l-1.099 3.382c-.139-.017-.276-.043-.42-.043a3.49 3.49 0 0 0-3.45 3h-4.1a3.49 3.49 0 0 0-3.45-3c-.144 0-.281.026-.421.042l-1.098-3.381zm2.141 9.263a2.508 2.508 0 0 1-3.047-3.047 2.49 2.49 0 0 1 1.802-1.802 2.508 2.508 0 0 1 3.047 3.046 2.488 2.488 0 0 1-1.802 1.803zm12.802-3.046a2.508 2.508 0 0 1-3.047 3.047 2.49 2.49 0 0 1-1.802-1.802 2.507 2.507 0 0 1 3.047-3.046c.874.211 1.59.927 1.802 1.801z"/></svg>

<svg xmlns="http://www.w3.org/2000/svg" viewBox="0 0 24 24">
                                
                            
  <path d="M19.977,13.947C20.149,13.973,20.321,14,20.5,14c2.197,0,3.921-2.024,3.409-4.309c-0.289-1.291-1.35-2.33-2.643-2.609 c-1.223-0.264-2.352,0.123-3.146,0.864c0,0,0,0,0,0l-3.082-2.239c0,0,0,0,0,0c0.444-0.788,0.625-1.744,0.289-2.782 c-0.404-1.247-1.515-2.205-2.813-2.389C10.352,0.23,8.5,1.898,8.5,4c0,0.624,0.177,1.201,0.462,1.708c0,0,0,0,0,0L5.88,7.947 c0,0,0,0,0,0C5.086,7.206,3.957,6.819,2.734,7.083C1.44,7.362,0.38,8.4,0.091,9.691C-0.421,11.976,1.303,14,3.5,14 c0.179,0,0.351-0.027,0.523-0.053l1.086,3.343h0c-1.462,0.635-2.407,2.234-2.023,3.997c0.285,1.307,1.358,2.365,2.668,2.635 C7.84,24.353,9.671,22.928,9.95,21h4.101c0.278,1.928,2.109,3.353,4.195,2.923c1.31-0.27,2.383-1.328,2.668-2.635 c0.385-1.763-0.561-3.362-2.023-3.997h0L19.977,13.947z M19.878,8.076c1.857-0.451,3.498,1.189,3.047,3.046 c-0.212,0.874-0.928,1.59-1.802,1.802c-1.858,0.451-3.498-1.189-3.047-3.047C18.288,9.004,19.004,8.288,19.878,8.076z M11.378,1.576 c1.857-0.451,3.498,1.189,3.047,3.046c-0.212,0.874-0.928,1.59-1.802,1.802c-1.858,0.451-3.498-1.189-3.047-3.047 C9.788,2.504,10.504,1.788,11.378,1.576z M1.075,11.122C0.625,9.264,2.265,7.624,4.122,8.076c0.874,0.212,1.59,0.929,1.802,1.802 c0.451,1.858-1.189,3.498-3.047,3.047C2.004,12.712,1.288,11.996,1.075,11.122z M4.981,13.661C6.171,13.102,7,11.902,7,10.5 c0-0.649-0.189-1.249-0.496-1.77l3.06-2.223c0,0,0,0,0,0C10.194,7.119,11.051,7.5,12,7.5s1.806-0.381,2.436-0.993c0,0,0,0,0,0 l3.06,2.223C17.189,9.251,17,9.851,17,10.5c0,1.402,0.829,2.602,2.019,3.161l-1.099,3.382c0,0,0,0,0,0 C17.781,17.026,17.644,17,17.5,17c-1.762,0-3.205,1.306-3.45,3H9.95c-0.245-1.694-1.688-3-3.45-3c-0.144,0-0.281,0.026-0.421,0.042 c0,0,0,0,0,0L4.981,13.661z M7.122,22.924c-1.858,0.451-3.498-1.189-3.047-3.047c0.212-0.874,0.929-1.59,1.802-1.802 c1.857-0.451,3.498,1.189,3.047,3.046C8.712,21.996,7.996,22.712,7.122,22.924z M19.924,19.878c0.451,1.858-1.189,3.498-3.047,3.047 c-0.874-0.212-1.59-0.929-1.802-1.802c-0.451-1.858,1.189-3.497,3.047-3.046C18.996,18.288,19.712,19.004,19.924,19.878z"></path>
</svg>
